assets/images/open-link.svg

<?xml version="1.0" encoding="UTF-8"?>
<svg width="30px" height="30px" viewBox="0 0 30 30" version="1.1" xmlns="http://www.w3.org/2000/svg" xmlns:xlink="http://www.w3.org/1999/xlink">
    <!-- Generator: sketchtool 52.4 (67378) - http://www.bohemiancoding.com/sketch -->
    <title>36BEF29B-56B1-4E6B-90EE-3CB9BE0E5D88</title>
    <desc>Created with sketchtool.</desc>
    <defs>
        <path d="M0.6875,17.55125 L0.6875,7.55625 C0.6875,5.48518219 2.36643219,3.80625 4.4375,3.80625 L10.72875,3.80625 C11.0617226,3.80565512 11.3811715,3.93793395 11.61625,4.17375 L11.625,4.1825 C11.8616408,4.41720825 11.9947479,4.73670308 11.9947479,5.07 C11.9947479,5.40329692 11.8616408,5.72279175 11.625,5.9575 L6.11625,11.4575 C4.90110749,12.6187526 4.76899044,14.5138743 5.81125,15.8325 C6.37683718,16.4951256 7.19335309,16.8915763 8.06384777,16.9262252 C8.93434244,16.9608742 9.77978567,16.6305756 10.39625,16.015 L16.04625,10.3725 C16.2809094,10.136244 16.6001356,10.0033818 16.933125,10.0033818 C17.2661144,10.0033818 17.5853406,10.136244 17.82,10.3725 C18.055816,10.6075785 18.1880949,10.9270274 18.1875,11.26 L18.1875,17.55125 C18.1875,19.6223178 16.5085678,21.30125 14.4375,21.30125 L4.4375,21.30125 C2.36643219,21.30125 0.6875,19.6223178 0.6875,17.55125 Z M17.155,6.61375 L9.07125,14.68625 C8.58247799,15.1743316 7.79058166,15.173772 7.30250002,14.685 C6.81441838,14.196228 6.81497802,13.4043317 7.30375,12.91625 L15.39125,4.84625 C15.4503355,4.78778735 15.4835822,4.70812024 15.4835822,4.625 C15.4835822,4.54187976 15.4503355,4.46221265 15.39125,4.40375 L12.75,1.7625 C12.5716736,1.58361496 12.5185509,1.31497699 12.6153695,1.08168251 C12.7121881,0.84838803 12.9399131,0.696303501 13.1925,0.69625 L20.6925,0.69625 C21.037678,0.69625 21.3175,0.976072031 21.3175,1.32125 L21.3175,8.82125 C21.3174589,9.07417025 21.1649894,9.30213447 20.93125,9.39875 C20.8554385,9.42971199 20.7743893,9.44583695 20.6925,9.44625 C20.5264468,9.44621482 20.3672335,9.38010083 20.25,9.2625 L17.59625,6.61375 C17.4742907,6.4921716 17.2769593,6.4921716 17.155,6.61375 Z" id="path-1"></path>
    </defs>
    <g id="Symbols" stroke="none" stroke-width="1" fill="none" fill-rule="evenodd">
        <g id="Elements/Icons/Open-link">
            <g id="Group" transform="translate(5.000000, 4.000000)">
                <g id="expand-6">
                    <g id="Shape-+-Tint/Blauw-Mask">
                        <mask id="mask-2" fill="white">
                            <use xlink:href="#path-1"></use>
                        </mask>
                        <use id="Mask-2" fill="#000000" fill-rule="nonzero" xlink:href="#path-1"></use>
                        <g id="Tint/Blauw" mask="url(#mask-2)" fill="#0077C8">
                            <g transform="translate(-115.000000, -112.000000)" id="Rectangle-8">
                                <rect x="0" y="0" width="250" height="250"></rect>
                            </g>
                        </g>
                    </g>
                </g>
            </g>
        </g>
    </g>
</svg>

<svg xmlns="http://www.w3.org/2000/svg" xmlns:xlink="http://www.w3.org/1999/xlink" width="30" height="30" viewBox="0 0 30 30">
    <defs>
        <path id="a" d="M.688 17.551V7.556a3.75 3.75 0 0 1 3.75-3.75h6.29c.334 0 .653.132.888.368l.009.008a1.25 1.25 0 0 1 0 1.775l-5.509 5.5a3.258 3.258 0 0 0-.305 4.375 3.125 3.125 0 0 0 4.585.183l5.65-5.643a1.25 1.25 0 0 1 1.774 0c.236.236.368.555.367.888v6.291a3.75 3.75 0 0 1-3.75 3.75h-10a3.75 3.75 0 0 1-3.75-3.75zM17.154 6.614l-8.084 8.072a1.25 1.25 0 0 1-1.767-1.77l8.087-8.07a.311.311 0 0 0 0-.442L12.75 1.763a.625.625 0 0 1 .443-1.067h7.5c.345 0 .624.28.624.625v7.5a.625.625 0 0 1-1.067.441l-2.654-2.648a.313.313 0 0 0-.441 0z"/>
    </defs>
    <g fill="none" fill-rule="evenodd" transform="translate(5 4)">
        <mask id="b" fill="#fff">
            <use xlink:href="#a"/>
        </mask>
        <use fill="#000" fill-rule="nonzero" xlink:href="#a"/>
        <g fill="#0077C8" mask="url(#b)">
            <path d="M-115-112h250v250h-250z"/>
        </g>
    </g>
</svg>
